public/assets/images/logo-discord3.svg

<svg width="46" height="45" viewBox="0 0 46 45" fill="none" xmlns="http://www.w3.org/2000/svg">
<path fill-rule="evenodd" clip-rule="evenodd" d="M22.9 45C35.3264 45 45.4 34.9264 45.4 22.5C45.4 10.0736 35.3264 0 22.9 0C10.4736 0 0.399994 10.0736 0.399994 22.5C0.399994 34.9264 10.4736 45 22.9 45ZM25.66 25.29C26.515 25.29 27.19 24.54 27.19 23.625C27.19 22.71 26.515 21.96 25.66 21.96C24.805 21.96 24.13 22.71 24.13 23.625C24.13 24.54 24.82 25.29 25.66 25.29ZM18.655 23.625C18.655 22.71 19.33 21.96 20.185 21.96C21.04 21.96 21.73 22.71 21.715 23.625C21.715 24.54 21.04 25.29 20.185 25.29C19.345 25.29 18.655 24.54 18.655 23.625ZM36.025 39.375V12.465C36.025 10.755 34.645 9.375 32.95 9.375H12.85C11.155 9.375 9.77499 10.755 9.77499 12.465V32.745C9.77499 34.455 11.155 35.835 12.85 35.835H29.86L29.065 33.06C31.4056 35.2359 32.1544 35.9374 32.9166 36.6244C33.5837 37.2259 34.261 37.8161 36.025 39.375ZM29.59 17.94C29.59 17.94 31.75 21.855 31.75 26.685C31.75 26.685 30.475 28.86 27.16 28.965C27.16 28.965 26.62 28.32 26.17 27.75C28.135 27.195 28.885 25.965 28.885 25.965C28.27 26.37 27.685 26.655 27.16 26.85C23.9282 28.2073 20.3318 27.7429 17.8 26.325C17.7926 26.3201 17.7657 26.3046 17.7261 26.2819C17.6018 26.2104 17.3523 26.067 17.185 25.95C17.185 25.95 17.905 27.15 19.81 27.72C19.36 28.29 18.805 28.965 18.805 28.965C15.49 28.86 14.23 26.685 14.23 26.685C14.23 21.855 16.39 17.94 16.39 17.94C18.55 16.32 20.605 16.365 20.605 16.365L20.755 16.545C18.055 17.325 16.81 18.51 16.81 18.51C16.81 18.51 17.14 18.33 17.695 18.075C21.1514 16.5568 25.3369 16.5571 28.9 18.51C28.9 18.51 27.715 17.385 25.165 16.605L25.375 16.365C25.375 16.365 27.43 16.32 29.59 17.94Z" fill="#5865F2"/>
</svg>

<svg xmlns="http://www.w3.org/2000/svg" width="46" height="45" fill="none"><path fill="#5865F2" fill-rule="evenodd" d="M22.9 45c12.426 0 22.5-10.074 22.5-22.5S35.326 0 22.9 0 .4 10.074.4 22.5 10.474 45 22.9 45Zm2.76-19.71c.855 0 1.53-.75 1.53-1.665s-.675-1.665-1.53-1.665-1.53.75-1.53 1.665.69 1.665 1.53 1.665Zm-7.005-1.665c0-.915.675-1.665 1.53-1.665s1.545.75 1.53 1.665c0 .915-.675 1.665-1.53 1.665-.84 0-1.53-.75-1.53-1.665Zm17.37 15.75v-26.91c0-1.71-1.38-3.09-3.075-3.09h-20.1a3.082 3.082 0 0 0-3.075 3.09v20.28c0 1.71 1.38 3.09 3.075 3.09h17.01l-.795-2.775c2.34 2.176 3.09 2.877 3.852 3.564.667.602 1.344 1.192 3.108 2.751ZM29.59 17.94s2.16 3.915 2.16 8.745c0 0-1.275 2.175-4.59 2.28 0 0-.54-.645-.99-1.215 1.965-.555 2.715-1.785 2.715-1.785-.615.405-1.2.69-1.725.885-3.232 1.357-6.828.893-9.36-.525a2.583 2.583 0 0 0-.074-.043c-.124-.072-.374-.215-.541-.332 0 0 .72 1.2 2.625 1.77-.45.57-1.005 1.245-1.005 1.245-3.315-.105-4.575-2.28-4.575-2.28 0-4.83 2.16-8.745 2.16-8.745 2.16-1.62 4.215-1.575 4.215-1.575l.15.18c-2.7.78-3.945 1.965-3.945 1.965s.33-.18.885-.435c3.456-1.518 7.642-1.518 11.205.435 0 0-1.185-1.125-3.735-1.905l.21-.24s2.055-.045 4.215 1.575Z" clip-rule="evenodd"/></svg>
